public/payments/common/ezeewallet.svg

<svg width="100" height="18" viewBox="0 0 100 18" fill="none" xmlns="http://www.w3.org/2000/svg">
<g clip-path="url(#clip0_227_119)">
<path d="M66.0156 13.4423C64.6777 13.4423 63.6914 12.7981 63.4082 11.6539C63.1445 12.7981 62.1484 13.4423 60.8203 13.4423C58.623 13.4423 57.5391 12.0192 57.5391 10.0866V4.31732H59.6777V10.2116C59.6777 11.1442 60.0098 11.7692 61.0059 11.7692C61.9531 11.7692 62.334 11.1442 62.3535 10.2116V4.31732H64.4824V10.2116C64.4824 11.1442 64.873 11.7692 65.8301 11.7692C66.8262 11.7692 67.1582 11.1442 67.1582 10.2116V4.31732H69.2969V10.0866C69.2969 12.0192 68.2129 13.4423 66.0156 13.4423Z" fill="white"/>
<path d="M38.6523 6.59617C39.1309 5.93271 39.3848 5.13463 39.3848 4.31732H32.4902V5.92309H36.748L33.0664 11.0192C32.5879 11.6827 32.334 12.4808 32.334 13.2981H39.2285V11.6923H34.9707L38.6523 6.59617Z" fill="white"/>
<path d="M98.0371 7.48078V9.78848C98.0371 9.97117 98.0371 10.1539 98.0371 10.3366C98.0371 10.7019 98.0957 11.0192 98.2324 11.2596L98.2422 11.2885C98.291 11.3654 98.3398 11.4423 98.4082 11.5C98.4473 11.5385 98.4863 11.5769 98.5352 11.6058C98.5547 11.625 98.584 11.6346 98.6133 11.6539L98.623 11.6635L98.6523 11.6827C98.916 11.8366 99.2285 11.8846 99.5312 11.8846C99.6875 11.8846 99.8437 11.8654 100 11.8366V13.4231C99.8437 13.4423 99.6875 13.4423 99.5312 13.4423C97.8418 13.4423 96.5332 12.6154 96.1035 11.2981L96.0937 11.2789C96.0254 11.0289 95.9863 10.7692 95.9668 10.4904C95.9668 10.4423 95.957 10.3846 95.957 10.3366V10.3269C95.957 10.2692 95.957 10.2116 95.957 10.1539C95.957 9.53848 95.957 7.48078 95.957 7.48078H94.668V5.92309H95.957V4.31732H98.0371V5.91348H100V7.48078H98.0371Z" fill="white"/>
<path d="M42.4121 8.99999C42.4121 7.77884 43.1836 7.48076 43.8965 7.48076C44.6289 7.48076 45.4004 7.77884 45.4004 8.99999H42.4121ZM46.5918 6.88461C46.5527 6.84614 46.5137 6.80768 46.4648 6.76922C46.2695 6.59614 46.0449 6.45191 45.8008 6.32691C45.6836 6.26922 45.5664 6.22114 45.4395 6.17307C45.4004 6.16345 45.3613 6.14422 45.3223 6.13461C44.8926 5.99038 44.4141 5.91345 43.8965 5.91345C43.7598 5.91345 43.623 5.92307 43.4961 5.93268C43.418 5.9423 43.3496 5.95191 43.2715 5.95191C42.9785 5.99038 42.7051 6.04807 42.4512 6.14422C42.3535 6.17307 42.2656 6.21153 42.168 6.24999C42.0801 6.28845 41.9922 6.33653 41.9043 6.37499C41.6504 6.50961 41.416 6.67307 41.2207 6.86538C40.6543 7.40384 40.3223 8.15384 40.3223 9.04807V9.67307V10.2981C40.3223 10.3269 40.332 10.3461 40.332 10.375C40.3418 10.6346 40.3711 10.8846 40.4297 11.1154V11.1346C40.8105 12.5481 42.1582 13.4327 43.916 13.4327C45.3613 13.4327 46.5332 12.8269 47.1094 11.8173V11.8077C47.1973 11.6538 47.2656 11.5 47.3242 11.3365H45.1465C44.9707 11.5865 44.7168 11.7404 44.4434 11.8077C44.2773 11.8558 44.0918 11.8654 43.916 11.8654C43.6133 11.8654 43.291 11.8173 43.0371 11.6635L43.0078 11.6442C42.793 11.5288 42.6465 11.3365 42.5488 11.1058C42.5293 11.0481 42.5 10.9808 42.4902 10.9231C42.4805 10.8846 42.4707 10.8365 42.4609 10.7885C42.4316 10.6635 42.4219 10.5096 42.4219 10.3558V10.3173H47.5V10.2981V9.67307V9.04807C47.4902 8.17307 47.1582 7.43268 46.5918 6.88461Z" fill="white"/>
<path d="M75.4102 10.9712C75.4004 11.0673 75.3711 11.1538 75.3223 11.2308C75.127 11.5481 74.6191 11.8942 73.8281 11.8942C73.2813 11.8942 72.8027 11.5865 72.8027 11.0192C72.8027 10.4519 73.2422 10.0962 74.0137 10.0962H75.4102V10.5577C75.4199 10.6923 75.4297 10.8269 75.4102 10.9712ZM77.4609 8.94231C77.4609 8.82692 77.4512 8.72115 77.4414 8.60577C77.4316 8.52885 77.4219 8.45192 77.4121 8.375C77.4023 8.33654 77.3926 8.29808 77.3926 8.25962C77.3926 8.22115 77.373 8.18269 77.373 8.15385V8.13462C77.002 6.75 75.6836 5.875 73.9551 5.875C73.0371 5.875 72.2363 6.11538 71.6309 6.55769C71.4355 6.70192 71.2598 6.86539 71.1035 7.04808L72.6758 8.03846C72.8516 7.72115 73.125 7.54808 73.4375 7.47115C73.4766 7.46154 73.5254 7.45192 73.5645 7.44231C73.6914 7.42308 73.8184 7.41346 73.9551 7.41346C74.1016 7.41346 74.2578 7.42308 74.4043 7.46154C74.4434 7.47115 74.4727 7.48077 74.5117 7.49038C74.6191 7.51923 74.7168 7.56731 74.8145 7.625L74.8438 7.64423L74.8535 7.65385C74.873 7.66346 74.8926 7.68269 74.9121 7.69231C75.0488 7.77885 75.1465 7.89423 75.2148 8.02885C75.2344 8.05769 75.2441 8.07692 75.2539 8.10577C75.2637 8.13462 75.2734 8.15385 75.2832 8.18269C75.3027 8.24038 75.332 8.29808 75.3418 8.36538C75.3516 8.40385 75.3613 8.45192 75.3711 8.49039C75.3809 8.51923 75.3809 8.55769 75.3906 8.58654V8.59615C75.4004 8.66346 75.4102 8.72115 75.4102 8.79808C75.4102 8.83654 75.4102 8.875 75.4102 8.91346V8.95192H73.4863C72.002 8.95192 70.752 9.58654 70.752 11.1538C70.752 12.6346 72.0605 13.4423 73.3984 13.4423C74.1309 13.4423 74.9121 13.2308 75.4102 12.7019V13.3077H77.4609V9.06731C77.4707 9.01923 77.4707 8.98077 77.4609 8.94231Z" fill="white"/>
<path d="M26.3477 8.99999C26.3477 7.77884 27.1191 7.48076 27.832 7.48076C28.5645 7.48076 29.3359 7.77884 29.3359 8.99999H26.3477ZM30.5273 6.88461C30.4883 6.84614 30.4492 6.80768 30.4004 6.76922C30.2051 6.59614 29.9805 6.45191 29.7363 6.32691C29.6191 6.26922 29.502 6.22114 29.375 6.17307C29.3359 6.16345 29.2969 6.14422 29.2578 6.13461C28.8281 5.99038 28.3496 5.91345 27.832 5.91345C27.6953 5.91345 27.5586 5.92307 27.4316 5.93268C27.3535 5.9423 27.2852 5.95191 27.207 5.95191C26.9141 5.99038 26.6406 6.04807 26.3867 6.14422C26.2891 6.17307 26.2012 6.21153 26.1035 6.24999C26.0156 6.28845 25.9277 6.33653 25.8398 6.37499C25.5859 6.50961 25.3516 6.67307 25.1563 6.86538C24.5898 7.40384 24.2578 8.15384 24.2578 9.04807V9.67307V10.2981C24.2578 10.3269 24.2676 10.3461 24.2676 10.375C24.2773 10.6346 24.3066 10.8846 24.3652 11.1154V11.1346C24.7461 12.5481 26.0938 13.4327 27.8516 13.4327C29.2969 13.4327 30.4688 12.8269 31.0449 11.8173V11.8077C31.0645 11.7692 31.0938 11.7211 31.1133 11.6827C31.1719 11.5673 31.2207 11.4519 31.2598 11.3365H29.082C28.9062 11.5865 28.6523 11.7404 28.3789 11.8077C28.2129 11.8558 28.0273 11.8654 27.8516 11.8654C27.5488 11.8654 27.2266 11.8173 26.9727 11.6635L26.9434 11.6442C26.7285 11.5288 26.582 11.3365 26.4844 11.1058C26.4648 11.0481 26.4355 10.9808 26.416 10.9231C26.4063 10.8846 26.3965 10.8365 26.3867 10.7885C26.3574 10.6635 26.3477 10.5096 26.3477 10.3558V10.3173H31.4258V10.2981V9.67307V9.04807C31.4258 8.17307 31.0938 7.43268 30.5273 6.88461Z" fill="white"/>
<path d="M50.8887 8.99999C50.8887 7.77884 51.6602 7.48076 52.373 7.48076C53.1055 7.48076 53.877 7.77884 53.877 8.99999H50.8887ZM55.0684 6.88461C55.0293 6.84614 54.9902 6.80768 54.9414 6.76922C54.7461 6.59614 54.5215 6.45191 54.2773 6.32691C54.1602 6.26922 54.043 6.22114 53.916 6.17307C53.8769 6.16345 53.8379 6.14422 53.7988 6.13461C53.3691 5.99038 52.8906 5.91345 52.373 5.91345C52.2363 5.91345 52.0996 5.92307 51.9727 5.93268C51.8945 5.9423 51.8262 5.95191 51.748 5.95191C51.4551 5.99038 51.1816 6.04807 50.9277 6.14422C50.8301 6.17307 50.7422 6.21153 50.6445 6.24999C50.5566 6.28845 50.4688 6.33653 50.3809 6.37499C50.127 6.50961 49.9023 6.67307 49.6973 6.86538C49.1309 7.40384 48.7988 8.15384 48.7988 9.04807V9.67307V10.2981C48.7988 10.3269 48.8086 10.3461 48.8086 10.375C48.8184 10.6346 48.8477 10.8846 48.9062 11.1154V11.1346C49.2871 12.5481 50.6348 13.4327 52.3926 13.4327C53.8379 13.4327 55.0098 12.8269 55.5859 11.8173V11.8077C55.6738 11.6538 55.7422 11.5 55.8008 11.3365H53.6133C53.4375 11.5865 53.1836 11.7404 52.9102 11.8077C52.7441 11.8558 52.5586 11.8654 52.3828 11.8654C52.0801 11.8654 51.7578 11.8173 51.5039 11.6635L51.4746 11.6442C51.2598 11.5288 51.1133 11.3365 51.0156 11.1058C50.9961 11.0481 50.9668 10.9808 50.9473 10.9231C50.9375 10.8846 50.9277 10.8365 50.918 10.7885C50.8887 10.6635 50.8789 10.5096 50.8789 10.3558V10.3173H55.957V10.2981V9.67307V9.04807C55.9668 8.17307 55.6348 7.43268 55.0684 6.88461Z" fill="white"/>
<path d="M88.6328 8.99999C88.6328 7.77884 89.4043 7.48076 90.1172 7.48076C90.8496 7.48076 91.6211 7.77884 91.6211 8.99999H88.6328ZM92.8125 6.88461C92.7734 6.84614 92.7344 6.80768 92.6855 6.76922C92.4902 6.59614 92.2656 6.45191 92.0215 6.32691C91.9043 6.26922 91.7871 6.22114 91.6602 6.17307C91.6211 6.16345 91.582 6.14422 91.543 6.13461C91.1133 5.99038 90.6348 5.91345 90.1172 5.91345C89.9805 5.91345 89.8438 5.92307 89.7168 5.93268C89.6387 5.9423 89.5703 5.95191 89.4922 5.95191C89.1992 5.99038 88.9258 6.04807 88.6719 6.14422C88.5742 6.17307 88.4863 6.21153 88.3887 6.24999C88.3008 6.28845 88.2129 6.33653 88.125 6.37499C87.8711 6.50961 87.6367 6.67307 87.4414 6.86538C86.875 7.40384 86.543 8.15384 86.543 9.04807V9.67307V10.2981C86.543 10.3269 86.5527 10.3461 86.5527 10.375C86.5625 10.6346 86.5918 10.8846 86.6504 11.1154V11.1346C87.0312 12.5481 88.3789 13.4327 90.1367 13.4327C91.582 13.4327 92.7539 12.8269 93.3301 11.8173V11.8077C93.418 11.6538 93.4863 11.5 93.5449 11.3365H91.3672C91.1914 11.5865 90.9375 11.7404 90.6641 11.8077C90.498 11.8558 90.3125 11.8654 90.1367 11.8654C89.834 11.8654 89.5117 11.8173 89.2578 11.6635L89.2285 11.6442C89.0137 11.5288 88.8672 11.3365 88.7695 11.1058C88.75 11.0481 88.7207 10.9808 88.7109 10.9231C88.7012 10.8846 88.6914 10.8365 88.6816 10.7885C88.6523 10.6635 88.6426 10.5096 88.6426 10.3558V10.3173H93.7207V10.2981V9.67307V9.04807C93.7109 8.17307 93.3789 7.43268 92.8125 6.88461Z" fill="white"/>
<path d="M80.0586 13.2981H81.25V4.31732H79.1699V12.4327C79.1699 12.9135 79.5605 13.2981 80.0586 13.2981Z" fill="white"/>
<path d="M83.6719 13.2981H84.8633V4.31732H82.7832V12.4327C82.7832 12.9135 83.1836 13.2981 83.6719 13.2981Z" fill="white"/>
<path d="M6.8457 11.1634C6.8457 11.7981 7.36328 12.3077 8.00781 12.3077H17.2852V10.0288H8.00781C7.36328 10.0192 6.8457 10.5288 6.8457 11.1634Z" fill="#03C5D3"/>
<path d="M17.2754 5.4519H7.99805C7.35352 5.4519 6.83594 5.96152 6.83594 6.59613C6.83594 7.23075 7.35352 7.74037 7.99805 7.74037H17.2754V5.4519Z" fill="#03C5D3"/>
<path d="M3.88691 4.66348C3.7209 4.96156 3.64277 5.2981 3.64277 5.63464C3.63301 6.50002 4.17988 7.15387 4.90254 7.59618C5.43965 7.94233 5.95723 8.34618 5.95723 9.00002C5.95723 9.65387 5.43965 10.0577 4.90254 10.4039C4.18965 10.8462 3.64277 11.5 3.64277 12.3654C3.64277 12.7019 3.7209 13.0385 3.88691 13.3366C4.40449 14.2981 5.48848 14.5769 6.51387 14.5769H18.4279V18H6.32832C6.16231 18 5.99629 18 5.82051 18C4.39473 18.0096 2.90059 17.6923 1.75801 16.8077C1.10371 16.3077 0.595899 15.6443 0.312696 14.8654C-0.351366 13.1058 0.0490242 11.3846 1.42598 10.1058C1.5627 9.97118 1.70918 9.84618 1.83613 9.70195C1.97285 9.5481 2.09981 9.37502 2.1584 9.1731C2.17793 9.11541 2.1877 9.07694 2.1877 9.00002C2.1877 8.9231 2.17793 8.88464 2.1584 8.82695C2.09981 8.62502 1.97285 8.45195 1.83613 8.2981C1.70918 8.15387 1.5627 8.02887 1.42598 7.89425C0.0490242 6.61541 -0.351366 4.88464 0.312696 3.13464C0.605665 2.36541 1.10371 1.69233 1.76777 1.19233C2.91035 0.31733 4.40449 -0.00959306 5.83027 2.23259e-05C5.99629 2.23259e-05 6.16231 2.23259e-05 6.33809 2.23259e-05H18.4377V3.4231H6.52363C5.48848 3.4231 4.40449 3.70195 3.88691 4.66348Z" fill="#03C5D3"/>
</g>
<defs>
<clipPath id="clip0_227_119">
<rect width="100" height="18" fill="white"/>
</clipPath>
</defs>
</svg>

<svg xmlns="http://www.w3.org/2000/svg" width="100" height="18" fill="none"><g clip-path="url(#a)"><path fill="#fff" d="M66.02 13.44c-1.34 0-2.33-.64-2.61-1.79-.27 1.15-1.26 1.8-2.59 1.8-2.2 0-3.28-1.43-3.28-3.36V4.32h2.14v5.9c0 .92.33 1.55 1.33 1.55.94 0 1.32-.63 1.34-1.56v-5.9h2.13v5.9c0 .93.4 1.56 1.35 1.56 1 0 1.33-.63 1.33-1.56v-5.9h2.14v5.78c0 1.93-1.09 3.35-3.28 3.35ZM38.65 6.6a3.9 3.9 0 0 0 .73-2.28H32.5v1.6h4.26l-3.68 5.1a3.9 3.9 0 0 0-.74 2.28h6.9v-1.6h-4.26l3.68-5.1ZM98.04 7.48v2.86c0 .36.06.68.2.92v.03c.05.08.1.15.17.21.04.04.08.08.13.1.01.03.04.03.07.05l.01.01.03.02c.27.16.58.2.88.2.16 0 .31-.01.47-.04v1.58c-.16.02-.31.02-.47.02-1.69 0-3-.82-3.43-2.14v-.02c-.07-.25-.11-.51-.13-.79l-.01-.15V7.48h-1.3V5.92h1.3v-1.6h2.08v1.6H100v1.56h-1.96ZM42.41 9c0-1.22.77-1.52 1.49-1.52.73 0 1.5.3 1.5 1.52h-2.99Zm4.18-2.12-.13-.11a3.18 3.18 0 0 0-1.02-.6c-.04 0-.08-.03-.12-.04a4.47 4.47 0 0 0-1.82-.2l-.23.02c-.3.04-.56.1-.82.2-.1.02-.18.06-.28.1l-.27.12a2.93 2.93 0 0 0-1.58 2.68v1.25l.01.07c.01.26.04.51.1.75v.01c.38 1.42 1.73 2.3 3.49 2.3 1.44 0 2.61-.6 3.19-1.61v-.01c.09-.16.16-.31.21-.47h-2.17c-.18.25-.43.4-.7.47-.17.05-.36.06-.53.06-.3 0-.63-.05-.88-.2l-.03-.03c-.22-.11-.36-.3-.46-.53l-.06-.19-.03-.13a1.98 1.98 0 0 1-.04-.43v-.04h5.08V9.05a2.99 2.99 0 0 0-.9-2.17ZM75.41 10.97a.59.59 0 0 1-.09.26c-.2.32-.7.66-1.5.66-.54 0-1.02-.3-1.02-.87 0-.57.44-.92 1.21-.92h1.4v.46c.01.13.02.27 0 .41Zm2.05-2.03c0-.11 0-.22-.02-.33 0-.08-.02-.16-.03-.23a.47.47 0 0 1-.02-.12l-.02-.1v-.03c-.37-1.38-1.69-2.26-3.41-2.26a3.9 3.9 0 0 0-2.33.69c-.2.14-.37.3-.53.49l1.58.99c.17-.32.44-.5.76-.57l.12-.03a2.57 2.57 0 0 1 .84.02l.11.03c.1.03.2.08.3.13l.03.02.01.01.06.04c.14.09.24.2.3.34l.04.08.03.07c.02.06.05.12.06.19l.03.12.02.1.02.2v.16h-1.92c-1.49 0-2.74.64-2.74 2.2 0 1.48 1.31 2.3 2.65 2.3.73 0 1.51-.22 2.01-.75v.6h2.05V9.08a.27.27 0 0 0 0-.13ZM26.35 9c0-1.22.77-1.52 1.48-1.52.73 0 1.5.3 1.5 1.52h-2.98Zm4.18-2.12a3.17 3.17 0 0 0-1.15-.71c-.04 0-.08-.03-.12-.04a4.47 4.47 0 0 0-1.83-.2l-.22.02c-.3.04-.57.1-.82.2-.1.02-.19.06-.29.1-.08.04-.17.09-.26.12a2.93 2.93 0 0 0-1.58 2.68v1.32c.02.26.05.51.1.75v.01c.39 1.42 1.73 2.3 3.5 2.3 1.44 0 2.6-.6 3.18-1.61v-.01l.07-.13c.06-.11.11-.23.15-.34h-2.18c-.17.25-.43.4-.7.47-.17.05-.35.06-.53.06-.3 0-.62-.05-.88-.2l-.03-.03c-.21-.11-.36-.3-.46-.53l-.06-.19-.03-.13a1.98 1.98 0 0 1-.04-.43v-.04h5.08V9.05c0-.88-.34-1.62-.9-2.17ZM50.89 9c0-1.22.77-1.52 1.48-1.52.74 0 1.5.3 1.5 1.52H50.9Zm4.18-2.12a3.17 3.17 0 0 0-1.15-.71c-.04 0-.08-.03-.12-.04a4.47 4.47 0 0 0-1.83-.2l-.22.02c-.3.04-.57.1-.82.2-.1.02-.19.06-.29.1-.08.04-.17.09-.26.12a2.94 2.94 0 0 0-1.58 2.67v1.33c.02.26.05.51.1.75v.01c.39 1.42 1.73 2.3 3.5 2.3 1.44 0 2.61-.6 3.19-1.61v-.01c.08-.16.15-.31.21-.47h-2.19c-.17.25-.43.4-.7.47-.17.05-.35.06-.53.06-.3 0-.62-.05-.88-.2l-.03-.03c-.21-.11-.36-.3-.45-.53l-.07-.19a2.98 2.98 0 0 1-.07-.56v-.04h5.08V9.05a2.9 2.9 0 0 0-.9-2.17ZM88.63 9c0-1.22.77-1.52 1.49-1.52.73 0 1.5.3 1.5 1.52h-2.99Zm4.18-2.12-.12-.11a3.18 3.18 0 0 0-1.03-.6c-.04 0-.08-.03-.12-.04a4.47 4.47 0 0 0-1.82-.2l-.23.02c-.3.04-.56.1-.82.2-.1.02-.18.06-.28.1l-.27.12a2.93 2.93 0 0 0-1.58 2.68v1.25l.01.07c.01.26.04.51.1.75v.01c.38 1.42 1.73 2.3 3.49 2.3 1.44 0 2.61-.6 3.19-1.61v-.01c.09-.16.16-.31.21-.47h-2.17c-.18.25-.43.4-.7.47-.17.05-.36.06-.53.06-.3 0-.63-.05-.88-.2l-.03-.03c-.22-.11-.36-.3-.46-.53l-.06-.19-.03-.13a1.98 1.98 0 0 1-.04-.43v-.04h5.08V9.05a2.99 2.99 0 0 0-.9-2.17ZM80.06 13.3h1.19V4.32h-2.08v8.11c0 .48.4.87.89.87ZM83.67 13.3h1.2V4.32h-2.09v8.11c0 .48.4.87.9.87Z"/><path fill="#03C5D3" d="M6.85 11.16c0 .64.51 1.15 1.16 1.15h9.28v-2.28H8c-.65-.01-1.16.5-1.16 1.13ZM17.28 5.45H8a1.15 1.15 0 1 0 0 2.29h9.28V5.45Z"/><path fill="#03C5D3" d="M3.89 4.66a2 2 0 0 0-.25.97c0 .87.54 1.52 1.26 1.97.54.34 1.06.75 1.06 1.4 0 .65-.52 1.06-1.06 1.4-.71.45-1.26 1.1-1.26 1.97a2 2 0 0 0 .25.97c.51.96 1.6 1.24 2.62 1.24h11.92V18H5.83a6.55 6.55 0 0 1-4.07-1.2A4.3 4.3 0 0 1 .3 14.88a4.2 4.2 0 0 1 1.12-4.76c.13-.14.28-.26.4-.4.14-.16.27-.33.33-.54.02-.05.03-.1.03-.17a.46.46 0 0 0-.03-.17c-.06-.2-.19-.38-.32-.53-.13-.15-.28-.27-.41-.4A4.2 4.2 0 0 1 .3 3.12c.3-.76.8-1.44 1.46-1.94A6.6 6.6 0 0 1 5.83 0h12.6v3.42H6.54c-1.04 0-2.13.28-2.64 1.24Z"/></g><defs><clipPath id="a"><path fill="#fff" d="M0 0h100v18H0z"/></clipPath></defs></svg>
